X:2697
T:Humours of Derrykissane
T:Humours of Derrykosane
O:england
R:slip jig
H:Also in G, #34
H:Similar to "The Foxhunter's Jig", #2
M:9/8
K:D
~F3 FAF G2E|FED FGA EFG|FED FAF G2B|1 AFD DED D2E:|2 AFD DED DFA||
d2d BAG FGA|BGE EFE EFE|ded BAG FGA|dAF DED DFA|
d2d BAG FGA|BGE EFE E2A|ABc dcB ABc|dfd edc dDE||
